resources/icons/16px/notifications-snooze.svg

<svg xmlns="http://www.w3.org/2000/svg" viewBox="0 0 16 16" >
  <path d="M10 14C10 15.1 9.1 16 8 16C6.9 16 6 15.1 6 14H10ZM8 0C8.40441 0 8.75476 0.243296 8.9119 0.590748L8.9 0.6C8.2 1.2 8 1.95942 8 2.5C8 3.3 8.26667 3.93333 8.8 4.4C8.26667 5 8.00532 5.62222 8.01597 6.26667C8.01776 6.37496 8.01924 6.49454 8.02043 6.62542C8.03439 8.16183 9.28384 9.4 10.8203 9.4L13 9.399V10C13 10.5107 13.388 10.9352 13.8838 10.9932L14 11C14.55 11 15 11.45 15 12C15 12.55 14.55 13 14 13H2C1.45 13 1 12.55 1 12C1 11.45 1.45 11 2 11C2.55 11 3 10.55 3 10V6C3 3.57 4.73 1.55 7.02 1.1L7 1C7 0.45 7.45 0 8 0Z" /> 
  <path d="M14 6.70175C14 6.35294 13.7172 6.07018 13.3684 6.07018H11.625L13.8335 3.3356C13.9412 3.20218 14 3.03587 14 2.86438V2.56471C14 2.25283 13.7472 2 13.4353 2H10.5614C10.2513 2 10 2.25135 10 2.5614C10 2.87146 10.2513 3.12281 10.5614 3.12281H12.375L10.2213 5.79549C10.0781 5.97325 10 6.19466 10 6.42294V6.70175C10 7.05057 10.2828 7.33333 10.6316 7.33333H13.3684C13.7172 7.33333 14 7.05057 14 6.70175Z" />
</svg>

<svg xmlns="http://www.w3.org/2000/svg" viewBox="0 0 16 16">
  <path d="M10 14c0 1.1-.9 2-2 2s-2-.9-2-2zM8 0c.404 0 .755.243.912.59L8.9.6c-.7.6-.9 1.36-.9 1.9q0 1.2.8 1.9-.8.9-.784 1.867l.004.358a2.8 2.8 0 0 0 2.8 2.775L13 9.399V10c0 .51.388.935.884.993L14 11c.55 0 1 .45 1 1s-.45 1-1 1H2c-.55 0-1-.45-1-1s.45-1 1-1 1-.45 1-1V6c0-2.43 1.73-4.45 4.02-4.9L7 1c0-.55.45-1 1-1"/>
  <path d="M14 6.702a.63.63 0 0 0-.632-.632h-1.743l2.209-2.734A.75.75 0 0 0 14 2.864v-.3A.565.565 0 0 0 13.435 2h-2.874a.561.561 0 1 0 0 1.123h1.814l-2.154 2.672a1 1 0 0 0-.221.628v.279c0 .349.283.631.632.631h2.736A.63.63 0 0 0 14 6.702"/>
</svg>
